preferences/32/preferences-desktop.svg

<?xml version="1.0" encoding="UTF-8" standalone="no"?>
<svg
  width="32"
  height="32"
  version="1.1"
  viewBox="0 0 32 32"
  id="svg22"
  xmlns:xlink="http://www.w3.org/1999/xlink"
  xmlns="http://www.w3.org/2000/svg"
  xmlns:svg="http://www.w3.org/2000/svg">
 <style
   type="text/css"
   id="current-color-scheme">
  .ColorScheme-Highlight {
        color:#3daee9;
      }
      </style>
 <defs
   id="defs12">
  <linearGradient
    id="linearGradient35">
   <stop
     style="stop-color:#000000;stop-opacity:1;"
     offset="0"
     id="stop35" />
   <stop
     style="stop-color:#494949;stop-opacity:0;"
     offset="1"
     id="stop36" />
  </linearGradient>
  <linearGradient
    id="linearGradient15">
   <stop
     style="stop-color:#000000;stop-opacity:1;"
     offset="0"
     id="stop15" />
   <stop
     style="stop-color:#353a3f;stop-opacity:0.99607843;"
     offset="1"
     id="stop16" />
  </linearGradient>
  <linearGradient
    id="linearGradient7">
   <stop
     style="stop-color:#141618;stop-opacity:1;"
     offset="0"
     id="stop7" />
   <stop
     style="stop-color:#686868;stop-opacity:1;"
     offset="0.53189832"
     id="stop9" />
   <stop
     style="stop-color:#31363b;stop-opacity:1;"
     offset="1"
     id="stop8" />
  </linearGradient>
  <linearGradient
    xlink:href="#linearGradient3487"
    id="linearGradient3403"
    gradientUnits="userSpaceOnUse"
    x1="6.9491749"
    y1="4.5549412"
    x2="11.215498"
    y2="59.052471" />
  <linearGradient
    id="linearGradient3487">
   <stop
     style="stop-color:#32373c;stop-opacity:1"
     offset="0"
     id="stop3481" />
   <stop
     id="stop3483"
     offset="0.36804965"
     style="stop-color:#1a1a1a;stop-opacity:1" />
   <stop
     style="stop-color:#31363b;stop-opacity:1"
     offset="1"
     id="stop3485" />
  </linearGradient>
  <linearGradient
    xlink:href="#linearGradient20604"
    id="linearGradient20558"
    gradientUnits="userSpaceOnUse"
    x1="25.802212"
    y1="20.373846"
    x2="25.111048"
    y2="58.912758" />
  <linearGradient
    id="linearGradient20604">
   <stop
     id="stop20598"
     offset="0"
     style="stop-color:#3d3d3d;stop-opacity:1" />
   <stop
     style="stop-color:#000000;stop-opacity:1"
     offset="0.61772454"
     id="stop20600" />
   <stop
     id="stop20602"
     offset="1"
     style="stop-color:#3d3d3d;stop-opacity:1" />
  </linearGradient>
  <filter
    style="color-interpolation-filters:sRGB"
    id="filter20720"
    x="-0.017154225"
    y="-0.016541574"
    width="1.0343069"
    height="1.0330831">
   <feGaussianBlur
     stdDeviation="0.14745661"
     id="feGaussianBlur20722" />
  </filter>
  <linearGradient
    xlink:href="#linearGradient7"
    id="linearGradient8"
    x1="17"
    y1="30"
    x2="17"
    y2="2"
    gradientUnits="userSpaceOnUse" />
  <linearGradient
    xlink:href="#linearGradient15"
    id="linearGradient16"
    x1="6"
    y1="26"
    x2="25"
    y2="6"
    gradientUnits="userSpaceOnUse" />
  <linearGradient
    id="a"
    gradientTransform="matrix(-0.64259917,-0.17218382,0.17218382,-0.64259917,26.061956,42.852172)"
    gradientUnits="userSpaceOnUse"
    x1="394.57169"
    x2="422.57166"
    y1="525.79797"
    y2="553.79797">
   <stop
     offset="0"
     stop-color="#d6d9dc"
     id="stop2-3" />
   <stop
     offset="1"
     stop-color="#a1a9b1"
     id="stop4-1-3" />
  </linearGradient>
  <linearGradient
    xlink:href="#a"
    id="linearGradient25"
    gradientUnits="userSpaceOnUse"
    gradientTransform="matrix(-0.64259917,-0.17218382,0.17218382,-0.64259917,26.061956,42.852172)"
    x1="394.57169"
    y1="525.79797"
    x2="422.57166"
    y2="553.79797" />
  <linearGradient
    xlink:href="#linearGradient35"
    id="linearGradient36"
    x1="10"
    y1="5"
    x2="40.33807"
    y2="32"
    gradientUnits="userSpaceOnUse" />
 </defs>
 <rect
   style="display:inline;opacity:1;fill:url(#linearGradient16);stroke-width:0.226"
   id="rect13"
   width="25"
   height="28"
   x="5"
   y="2"
   rx="3"
   ry="3" />
 <path
   style="display:inline;opacity:1;fill:url(#linearGradient36);stroke-width:0.226"
   d="M 20.908203,7.6796881 29.670956,16.442441 30,29 13.337448,29.174936 6,29 V 18 10 l 5.400282,-1.3746141 z"
   id="path35" />
 <path
   id="path22-4"
   style="display:inline;fill:url(#linearGradient25)"
   d="m 13.117188,5.1464844 c -0.454871,-6.671e-4 -0.91014,0.022375 -1.363282,0.068359 l -0.316406,2.0625 C 10.597859,7.4031756 9.7747854,7.6216709 8.984375,7.9316406 L 7.6835938,6.3085938 C 6.8518624,6.681938 6.060377,7.1387071 5.3222656,7.6738281 l 0.7539063,1.9375 C 5.4097706,10.139331 4.8050455,10.740769 4.2734375,11.404297 l -1.9238281,-0.75 c 0,5.328489 -0.00586,13.295701 -0.00586,18.457031 l 18.5664056,0.107422 -0.753906,-1.9375 c 0.6664,-0.528001 1.271127,-1.12944 1.802734,-1.792969 l 1.923828,0.75 c 0.534443,-0.739145 0.990895,-1.530639 1.363282,-2.363281 l -1.611328,-1.292969 c 0.157613,-0.395322 0.294161,-0.798427 0.40625,-1.208984 0.10527,-0.411194 0.185724,-0.82763 0.24414,-1.248047 l 2.058594,-0.316406 c 0.09463,-0.906009 0.09589,-1.820281 0.0039,-2.726563 l -2.0625,-0.314453 c -0.125758,-0.839704 -0.344373,-1.662641 -0.654297,-2.453125 l 1.623047,-1.302734 c -0.373343,-0.83173 -0.830114,-1.621265 -1.365234,-2.359375 l -1.9375,0.753906 C 21.423216,10.739909 20.821658,10.135091 20.158203,9.6035156 l 0.75,-1.9238281 C 20.169026,7.1452387 19.377598,6.6887886 18.544922,6.3164062 L 17.253906,7.9277344 C 16.858245,7.7700505 16.453881,7.6335673 16.042969,7.5214844 15.631775,7.4162125 15.215336,7.3357617 14.794922,7.2773438 L 14.480469,5.21875 C 14.027464,5.171435 13.572057,5.147151 13.117188,5.1464844 Z m 0.08594,3.984375 c 0.768164,0.0077 1.547886,0.1103406 2.324219,0.3183594 3.729796,0.9993952 6.321182,4.1275682 6.818359,7.7265622 -1.736048,0.103976 -3.88507,0.02843 -5.623047,0.0098 -0.129431,-0.0014 -0.253004,-0.02485 -0.365234,-0.05664 A 3.5934441,3.5934441 0 0 0 13,14.8125 3.5934441,3.5934441 0 0 0 12.419922,14.86523 c -0.02093,-0.02317 -0.04118,-0.04425 -0.0625,-0.07031 C 11.423066,13.305233 10.519201,11.781289 9.671875,10.259766 9.609981,10.14322 9.5600078,9.9951861 9.5058594,9.8632812 10.659099,9.3771487 11.914349,9.1180064 13.203125,9.1308594 Z m -5.8574219,2.0039066 1.0195313,1.820312 c 0.5671954,0.998275 1.1239855,2.030882 1.625,2.9375 0.067683,0.122546 0.1084916,0.251859 0.1347656,0.373047 A 3.5934441,3.5934441 0 0 0 9.40625,18.40625 3.5934441,3.5934441 0 0 0 10.125,20.544922 c -0.01669,0.09075 -0.04616,0.188611 -0.08984,0.298828 -0.5374291,0.976685 -1.1000632,1.942912 -1.6699216,2.900391 l -1.078125,1.966797 C 4.4961344,23.469306 3.1331635,19.714867 4.1191406,16.035156 4.6595932,14.018164 5.8226512,12.334791 7.3457031,11.134766 Z M 13,15.40625 a 3,3 0 0 1 3,3 3,3 0 0 1 -3,3 3,3 0 0 1 -3,-3 3,3 0 0 1 3,-3 z m 6.560547,4.363281 c 0.927532,0.0047 1.851814,0.02343 2.765625,0.05469 -0.05189,0.343846 -0.120765,0.689385 -0.212891,1.033203 -1.331313,4.96854 -6.439664,7.917255 -11.408203,6.585937 C 10.271956,27.327303 9.8560008,27.18061 9.4550781,27.009766 10.246554,25.495141 11.357522,23.756161 12.238281,22.3125 c 0.08438,-0.138304 0.19472,-0.257232 0.300781,-0.345703 A 3.5934441,3.5934441 0 0 0 13,22 3.5934441,3.5934441 0 0 0 16.287109,19.853516 c 0.07396,-0.02252 0.152505,-0.04274 0.246094,-0.05664 1.00792,-0.02334 2.017545,-0.03284 3.027344,-0.02734 z" />
 <path
   id="path42-3"
   style="display:inline;fill:#aaacae;fill-opacity:1;stroke-width:2.02469"
   d="m 5.5273438,7.5410156 c -0.069247,0.04396 -0.1366564,0.089538 -0.2050782,0.1347656 l 0.7539063,1.9355469 c 0.063441,-0.05785 0.1286355,-0.115457 0.1933593,-0.171875 z m 15.1738282,0.00586 -0.734375,1.8847656 c 0.0647,0.05686 0.127991,0.1135612 0.191406,0.171875 l 0.75,-1.9238281 c -0.06885,-0.045221 -0.137346,-0.08886 -0.207031,-0.1328125 z M 13.058594,8.4667969 C 8.882556,8.4912834 5.2104784,11.305232 4.1210938,15.371094 3.9152102,16.190206 3.8203573,17.032638 3.8417969,17.876953 3.8726528,17.2553 3.9671332,16.638238 4.1210938,16.035156 4.6327533,14.126321 5.7051459,12.522055 7.109375,11.337891 l 1.2207031,2.179687 c 0.5671951,0.998274 1.123986,2.030883 1.625,2.9375 0.00984,0.01781 0.014698,0.03664 0.023437,0.05469 A 3.5934441,3.5934441 0 0 1 10.125,16.265625 c -0.02627,-0.121188 -0.06708,-0.250501 -0.1347656,-0.373047 -0.5010135,-0.906616 -1.0578058,-1.939227 -1.625,-2.9375 L 7.3457031,11.134766 C 9.5743229,9.3789453 12.576049,8.6605067 15.527344,9.4511719 c 3.957487,1.0627681 6.755162,4.5862411 6.892578,8.6816401 0.164368,-4.34234 -2.695645,-8.221294 -6.892578,-9.3476558 -0.673672,-0.1808126 -1.365488,-0.284206 -2.0625,-0.3105468 -0.135689,-0.00506 -0.271539,-0.0086 -0.40625,-0.00781 z m 11.955078,4.0742191 -1.556641,1.246093 c 0.06184,0.173911 0.120548,0.350621 0.173828,0.527344 l 1.623047,-1.300781 c -0.07739,-0.158749 -0.156591,-0.317114 -0.240234,-0.472656 z M 13,15.40625 a 3,3 0 0 0 -3,3 3,3 0 0 0 0.01367,0.191406 A 3,2.7896471 0 0 1 13,15.984375 3,2.7896471 0 0 1 15.990234,18.546875 3,3 0 0 0 16,18.40625 a 3,3 0 0 0 -3,-3 z m 13.412109,2.685547 c -0.0086,0.351439 -0.03194,0.703079 -0.06836,1.052734 l -2.058594,0.314453 c -0.05832,0.420334 -0.138957,0.836926 -0.24414,1.248047 -0.112179,0.410811 -0.422322,1.340781 -0.580078,1.736328 l 0.173828,0.140625 c 0.08392,-0.226085 0.336951,-0.979949 0.40625,-1.210937 0.105183,-0.411123 0.185793,-0.827713 0.24414,-1.248047 l 2.058594,-0.316406 c 0.05952,-0.570298 0.08287,-1.143589 0.06836,-1.716797 z m -16.9921871,0.4375 a 3.5934441,3.5934441 0 0 0 -0.048828,0.439453 3.5934441,3.5934441 0 0 0 0.6152343,1.962891 c 0.016194,-0.02933 0.03268,-0.05854 0.048828,-0.08789 0.04368,-0.110217 0.07315,-0.208078 0.08984,-0.298828 A 3.5934441,3.5934441 0 0 1 9.4199219,18.529297 Z m 10.1406251,1.240234 c -1.009797,-0.0055 -2.019426,0.004 -3.027344,0.02734 -0.09359,0.0139 -0.172134,0.03412 -0.246094,0.05664 A 3.5934441,3.5934441 0 0 1 13,22 3.5934441,3.5934441 0 0 1 12.539062,21.9668 c -0.106059,0.08847 -0.216401,0.207399 -0.300781,0.345703 -0.880757,1.443659 -1.991729,3.182643 -2.7832029,4.697266 0.072161,0.03075 0.1475557,0.05679 0.2207031,0.08594 0.7635178,-1.394637 1.7377718,-2.926509 2.5273438,-4.220703 0.08438,-0.138305 0.194718,-0.257231 0.300781,-0.345703 a 3.5934441,3.5934441 0 0 0 0.460938,0.0332 3.5934441,3.5934441 0 0 0 3.287109,-2.146484 c 0.07396,-0.02252 0.152505,-0.04274 0.246094,-0.05664 1.007919,-0.02334 2.017547,-0.03284 3.027344,-0.02734 0.905148,0.0046 1.806917,0.02286 2.699218,0.05273 0.03906,-0.186677 0.07346,-0.374321 0.101563,-0.560547 -0.913809,-0.03126 -1.838095,-0.04999 -2.765625,-0.05469 z m 5.445312,3.91211 c -0.32118,0.660688 -0.697387,1.291886 -1.123047,1.890625 l -1.923828,-0.748047 c -0.531652,0.663309 -1.329718,1.435088 -1.996093,1.96289 l 0.193359,0.494141 c 0.590192,-0.484552 1.321981,-1.199669 1.802734,-1.792969 l 1.923828,0.75 C 24.41722,25.499156 24.873727,24.707618 25.246094,23.875 Z m -4.302734,5.005859 0.207031,0.53125 z" />
 <path
   style="display:inline;mix-blend-mode:normal;fill:url(#linearGradient3403);fill-opacity:1;stroke:url(#linearGradient20558);stroke-width:1.16242;stroke-linecap:butt;stroke-linejoin:round;stroke-miterlimit:4;stroke-dasharray:none;stroke-opacity:1;filter:url(#filter20720)"
   d="M 5.4025265,3.5689324 V 60.09958 H 57.895271 l 2.018951,-2.018952 c 0,0 -24.171977,0.621351 -33.141048,-4.285423 C 16.257548,48.042344 11.459382,3.5689324 11.459382,3.5689324 Z"
   id="path1686"
   transform="matrix(0.49530655,0,0,0.49530655,0.32409325,0.23228439)" />
 <path
   id="rect5"
   style="display:inline;opacity:1;fill:url(#linearGradient8);stroke-width:0.226"
   d="M 5,1 C 1,1 1,5 1,5 v 21 c 0,5 4,5 4,5 h 22 c 0,0 4,0 4,-4 V 5 c 0,0 0,-4 -4,-4 z m 0,2 h 22 c 2,0 2,2 2,2 v 22 c 0,2 -2,2 -2,2 H 5 C 5,29 3,29 3,26 V 5 C 3,5 3,3 5,3 Z" />
</svg>

<svg width="32" height="32" version="1.1" viewBox="0 0 32 32" xmlns="http://www.w3.org/2000/svg" xmlns:xlink="http://www.w3.org/1999/xlink">
<style id="current-color-scheme" type="text/css">.ColorScheme-Highlight {
        color:#3daee9;
      }</style>
<defs>
<linearGradient id="linearGradient3403" x1="6.9492" x2="11.215" y1="4.5549" y2="59.052" gradientUnits="userSpaceOnUse">
<stop style="stop-color:#32373c" offset="0"/>
<stop style="stop-color:#1a1a1a" offset=".36805"/>
<stop style="stop-color:#31363b" offset="1"/>
</linearGradient>
<linearGradient id="linearGradient20558" x1="25.802" x2="25.111" y1="20.374" y2="58.913" gradientUnits="userSpaceOnUse">
<stop style="stop-color:#3d3d3d" offset="0"/>
<stop offset=".61772"/>
<stop style="stop-color:#3d3d3d" offset="1"/>
</linearGradient>
<linearGradient id="linearGradient8" x1="17" x2="17" y1="30" y2="2" gradientUnits="userSpaceOnUse">
<stop style="stop-color:#141618" offset="0"/>
<stop style="stop-color:#686868" offset=".5319"/>
<stop style="stop-color:#31363b" offset="1"/>
</linearGradient>
<linearGradient id="linearGradient16" x1="6" x2="25" y1="26" y2="6" gradientUnits="userSpaceOnUse">
<stop offset="0"/>
<stop style="stop-color:#353a3f;stop-opacity:.99608" offset="1"/>
</linearGradient>
<linearGradient id="linearGradient25" x1="394.57" x2="422.57" y1="525.8" y2="553.8" gradientTransform="matrix(-.6426 -.17218 .17218 -.6426 26.062 42.852)" gradientUnits="userSpaceOnUse">
<stop stop-color="#d6d9dc" offset="0"/>
<stop stop-color="#a1a9b1" offset="1"/>
</linearGradient>
<linearGradient id="linearGradient36" x1="10" x2="40.338" y1="5" y2="32" gradientUnits="userSpaceOnUse">
<stop offset="0"/>
<stop style="stop-color:#494949;stop-opacity:0" offset="1"/>
</linearGradient>
</defs>
<rect x="5" y="2" width="25" height="28" rx="3" ry="3" style="fill:url(#linearGradient16);stroke-width:.226"/>
<path d="m20.908 7.6797 8.7628 8.7628 0.32904 12.558-16.663 0.17494-7.3374-0.17494v-19l5.4003-1.3746z" style="fill:url(#linearGradient36);stroke-width:.226"/>
<path d="m13.117 5.1465c-0.45487-6.671e-4 -0.91014 0.022375-1.3633 0.068359l-0.31641 2.0625c-0.83964 0.12583-1.6627 0.34433-2.4531 0.6543l-1.3008-1.623c-0.83173 0.37334-1.6232 0.83011-2.3613 1.3652l0.75391 1.9375c-0.6664 0.528-1.2711 1.1294-1.8027 1.793l-1.9238-0.75c0 5.3285-0.00586 13.296-0.00586 18.457l18.566 0.10742-0.75391-1.9375c0.6664-0.528 1.2711-1.1294 1.8027-1.793l1.9238 0.75c0.53444-0.73914 0.9909-1.5306 1.3633-2.3633l-1.6113-1.293c0.15761-0.39532 0.29416-0.79843 0.40625-1.209 0.10527-0.41119 0.18572-0.82763 0.24414-1.248l2.0586-0.31641c0.09463-0.90601 0.09589-1.8203 0.0039-2.7266l-2.0625-0.31445c-0.12576-0.8397-0.34437-1.6626-0.6543-2.4531l1.623-1.3027c-0.37334-0.83173-0.83011-1.6213-1.3652-2.3594l-1.9375 0.75391c-0.52795-0.66634-1.1295-1.2712-1.793-1.8027l0.75-1.9238c-0.73918-0.53445-1.5306-0.9909-2.3633-1.3633l-1.291 1.6113c-0.39566-0.15768-0.80002-0.29417-1.2109-0.40625-0.41119-0.10527-0.82763-0.18572-1.248-0.24414l-0.31445-2.0586c-0.453-0.047315-0.90841-0.071599-1.3633-0.072266zm0.08594 3.9844c0.76816 0.0077 1.5479 0.11034 2.3242 0.31836 3.7298 0.9994 6.3212 4.1276 6.8184 7.7266-1.736 0.10398-3.8851 0.02843-5.623 0.0098-0.12943-0.0014-0.253-0.02485-0.36523-0.05664a3.5934 3.5934 0 0 0-3.3574-2.3164 3.5934 3.5934 0 0 0-0.58008 0.05273c-0.02093-0.02317-0.04118-0.04425-0.0625-0.07031-0.93436-1.4897-1.8382-3.0136-2.6855-4.5352-0.061894-0.11655-0.11187-0.26458-0.16602-0.39648 1.1532-0.48613 2.4085-0.74527 3.6973-0.73242zm-5.8574 2.0039 1.0195 1.8203c0.5672 0.99828 1.124 2.0309 1.625 2.9375 0.067683 0.12255 0.10849 0.25186 0.13477 0.37305a3.5934 3.5934 0 0 0-0.71875 2.1406 3.5934 3.5934 0 0 0 0.71875 2.1387c-0.01669 0.09075-0.04616 0.18861-0.08984 0.29883-0.53743 0.97668-1.1001 1.9429-1.6699 2.9004l-1.0781 1.9668c-2.791-2.2416-4.1539-5.9961-3.168-9.6758 0.54045-2.017 1.7035-3.7004 3.2266-4.9004zm5.6543 4.2715a3 3 0 0 1 3 3 3 3 0 0 1-3 3 3 3 0 0 1-3-3 3 3 0 0 1 3-3zm6.5605 4.3633c0.92753 0.0047 1.8518 0.02343 2.7656 0.05469-0.05189 0.34385-0.12076 0.68938-0.21289 1.0332-1.3313 4.9685-6.4397 7.9173-11.408 6.5859-0.43312-0.11606-0.84908-0.26275-1.25-0.4336 0.79148-1.5146 1.9024-3.2536 2.7832-4.6973 0.08438-0.1383 0.19472-0.25723 0.30078-0.3457a3.5934 3.5934 0 0 0 0.46094 0.033203 3.5934 3.5934 0 0 0 3.2871-2.1465c0.07396-0.02252 0.1525-0.04274 0.24609-0.05664 1.0079-0.02334 2.0175-0.03284 3.0273-0.02734z" style="fill:url(#linearGradient25)"/>
<path d="m5.5273 7.541c-0.069247 0.04396-0.13666 0.089538-0.20508 0.13477l0.75391 1.9355c0.063441-0.05785 0.12864-0.11546 0.19336-0.17188zm15.174 0.00586-0.73438 1.8848c0.0647 0.05686 0.12799 0.11356 0.19141 0.17188l0.75-1.9238c-0.06885-0.045221-0.13735-0.08886-0.20703-0.13281zm-7.6426 0.91992c-4.176 0.024486-7.8481 2.8384-8.9375 6.9043-0.20588 0.81911-0.30074 1.6615-0.2793 2.5059 0.030856-0.62165 0.12534-1.2387 0.2793-1.8418 0.51166-1.9088 1.5841-3.5131 2.9883-4.6973l1.2207 2.1797c0.5672 0.99827 1.124 2.0309 1.625 2.9375 0.00984 0.01781 0.014698 0.03664 0.023437 0.05469a3.5934 3.5934 0 0 1 0.14648-0.24414c-0.02627-0.12119-0.06708-0.2505-0.13477-0.37305-0.50101-0.90662-1.0578-1.9392-1.625-2.9375l-1.0195-1.8203c2.2286-1.7558 5.2303-2.4743 8.1816-1.6836 3.9575 1.0628 6.7552 4.5862 6.8926 8.6816 0.16437-4.3423-2.6956-8.2213-6.8926-9.3477-0.67367-0.18081-1.3655-0.28421-2.0625-0.31055-0.13569-0.00506-0.27154-0.0086-0.40625-0.00781zm11.955 4.0742-1.5566 1.2461c0.06184 0.17391 0.12055 0.35062 0.17383 0.52734l1.623-1.3008c-0.07739-0.15875-0.15659-0.31711-0.24023-0.47266zm-12.014 2.8652a3 3 0 0 0-3 3 3 3 0 0 0 0.01367 0.19141 3 2.7896 0 0 1 2.9863-2.6133 3 2.7896 0 0 1 2.9902 2.5625 3 3 0 0 0 0.009766-0.14062 3 3 0 0 0-3-3zm13.412 2.6855c-0.0086 0.35144-0.03194 0.70308-0.06836 1.0527l-2.0586 0.31445c-0.05832 0.42033-0.13896 0.83693-0.24414 1.248-0.11218 0.41081-0.42232 1.3408-0.58008 1.7363l0.17383 0.14062c0.08392-0.22608 0.33695-0.97995 0.40625-1.2109 0.10518-0.41112 0.18579-0.82771 0.24414-1.248l2.0586-0.31641c0.05952-0.5703 0.08287-1.1436 0.06836-1.7168zm-16.992 0.4375a3.5934 3.5934 0 0 0-0.048828 0.43945 3.5934 3.5934 0 0 0 0.61523 1.9629c0.016194-0.02933 0.03268-0.05854 0.048828-0.08789 0.04368-0.11022 0.07315-0.20808 0.08984-0.29883a3.5934 3.5934 0 0 1-0.70507-2.0156zm10.141 1.2402c-1.0098-0.0055-2.0194 4e-3 -3.0273 0.02734-0.09359 0.0139-0.17213 0.03412-0.24609 0.05664a3.5934 3.5934 0 0 1-3.2871 2.1465 3.5934 3.5934 0 0 1-0.46094-0.0332c-0.10606 0.08847-0.2164 0.2074-0.30078 0.3457-0.88076 1.4437-1.9917 3.1826-2.7832 4.6973 0.072161 0.03075 0.14756 0.05679 0.2207 0.08594 0.76352-1.3946 1.7378-2.9265 2.5273-4.2207 0.08438-0.1383 0.19472-0.25723 0.30078-0.3457a3.5934 3.5934 0 0 0 0.46094 0.0332 3.5934 3.5934 0 0 0 3.2871-2.1465c0.07396-0.02252 0.1525-0.04274 0.24609-0.05664 1.0079-0.02334 2.0175-0.03284 3.0273-0.02734 0.90515 0.0046 1.8069 0.02286 2.6992 0.05273 0.03906-0.18668 0.07346-0.37432 0.10156-0.56055-0.91381-0.03126-1.8381-0.04999-2.7656-0.05469zm5.4453 3.9121c-0.32118 0.66069-0.69739 1.2919-1.123 1.8906l-1.9238-0.74805c-0.53165 0.66331-1.3297 1.4351-1.9961 1.9629l0.19336 0.49414c0.59019-0.48455 1.322-1.1997 1.8027-1.793l1.9238 0.75c0.53441-0.73912 0.99092-1.5307 1.3633-2.3633zm-4.3027 5.0059 0.20703 0.53125z" style="fill:#aaacae;stroke-width:2.0247"/>
<path transform="matrix(.49531 0 0 .49531 .32409 .23228)" d="m5.4025 3.5689v56.531h52.493l2.019-2.019s-24.172 0.62135-33.141-4.2854c-10.516-5.7529-15.314-50.226-15.314-50.226z" style="fill:url(#linearGradient3403);mix-blend-mode:normal;stroke-linejoin:round;stroke-width:1.1624;stroke:url(#linearGradient20558)"/>
<path d="m5 1c-4 0-4 4-4 4v21c0 5 4 5 4 5h22s4 0 4-4v-22s0-4-4-4zm0 2h22c2 0 2 2 2 2v22c0 2-2 2-2 2h-22s-2 0-2-3v-21s0-2 2-2z" style="fill:url(#linearGradient8);stroke-width:.226"/>
</svg>
